svg/fluentui-system-icons/ic_fluent_stack_32_regular.svg

<svg width="32" height="32" viewBox="0 0 32 32" fill="none" xmlns="http://www.w3.org/2000/svg">
<path d="M2 7C2 5.34315 3.34315 4 5 4H19C20.6569 4 22 5.34315 22 7V17C22 18.6569 20.6569 20 19 20H5C3.34315 20 2 18.6569 2 17V7ZM5 6C4.44772 6 4 6.44772 4 7V17C4 17.5523 4.44772 18 5 18H19C19.5523 18 20 17.5523 20 17V7C20 6.44772 19.5523 6 19 6H5ZM10.1699 25.9999C10.5818 27.1651 11.693 27.9999 12.9992 27.9999H18.9992C25.0743 27.9999 29.9992 23.0751 29.9992 16.9999V14.9999C29.9992 13.6937 29.1644 12.5825 27.9992 12.1707V16.9999C27.9992 21.9705 23.9698 25.9999 18.9992 25.9999H10.1699ZM8.99922 23.9999C7.693 23.9999 6.58176 23.1651 6.16992 21.9999H18.9992C21.7606 21.9999 23.9992 19.7614 23.9992 16.9999V8.17065C25.1644 8.58249 25.9992 9.69373 25.9992 10.9999V16.9999C25.9992 20.8659 22.8652 23.9999 18.9992 23.9999H8.99922Z" fill="#212121"/>
</svg>

<svg xmlns="http://www.w3.org/2000/svg" width="32" height="32"><path d="M2 7a3 3 0 0 1 3-3h14a3 3 0 0 1 3 3v10a3 3 0 0 1-3 3H5a3 3 0 0 1-3-3V7Zm3-1a1 1 0 0 0-1 1v10a1 1 0 0 0 1 1h14a1 1 0 0 0 1-1V7a1 1 0 0 0-1-1H5Zm5.17 20A3.001 3.001 0 0 0 13 28h6c6.074 0 11-4.925 11-11v-2a3.001 3.001 0 0 0-2-2.83V17a9 9 0 0 1-9 9h-8.83ZM9 24a3.001 3.001 0 0 1-2.83-2H19a5 5 0 0 0 5-5V8.17c1.164.412 2 1.524 2 2.83v6a7 7 0 0 1-7 7H9Z"/></svg>
